X: 7152
T: Chùir I Glùin Air A' Bhodaich
R: reel
M: 4/4
K: Gmajor
GB|{c}d2Bd {d}e2GB|{c}d2ed BAAB|{c}d2Bd {d}e2dB|A/A/A AB AG:|
Gd|g2fg a2ef|g2ag fdef|g2fg {g}a2gB|A/A/A AB AGGd|
g2fg a2ef|g2ag fdef|gefd Te2eB|A/A/A AB AG||

